X:0692
T:Blanchard's Hornpipe.
R:hornpipe
M:C
L:1/8
Q:1/2=100
I: :| :|
N:last three notes of bar 7 very unclear
Z:Jack Campin * www.campin.me.uk * 2009
K:G
gdBd cedc |BdBd cedc |BGBG cAcA |dBAG GFED |
gdBd cedc |BdBd cedc |Bgeb agaf |g2g2 g2z2:|
afdf afc'a|bgdg bgd'b|afdf afd'b|agfe d4   |
ecGc ecge |dBGB dBgd |dBge dBcA |G2G2 G2z2:|

